!!!ONB: MCCC : IJH0458_01 : Extracted Monophonic Melody
!!!COM: Haydn, Joseph
!!!OPR: String Quartet in F-sharp minor
!!!OMV: 1
!!!SCT: Hob.III:47 ; Op.50 No.4
!!!ODT: 1787///
**kern
*thru
*k[f#c#g#]
*f#:
*clefG
*M3/4
8c#
8c#
8c#
=1
2f#
4c#
=2
4A
8r
8aa
8aa
8aa
=3
4aa
8gg#
8ee#
8ee#
8ee#
=4
4gg#
8ff#
8cc#
8cc#
8cc#
=5
4ee
8dd
8cc#
8b
8a
=6
4g#
8r
8b
8b
8b
=7
4dd
8cc#
8b
8a
8g#
=8
4f#
2r
=9
8r
8a#
8b
8cc#
8dd
8ff#
=10
4ff#
8ee#
4.r
=11
8r
8g#
8b
8dd
8cc#
8b
=12
4b
8a
4.r
=13
4.r
8aa
8gg#
8aa
=14
4ddd
2r
=15
4.r
8gg#
8aa
8bb
=16
4ccc#
8r
8aa
8aa
8aa
=17
4gg#
8aa
8ee
8ee
8ee
=18
4dd
8cc#
8b
8b
8b
=19
4cc
8b
8a#
8b
8g#
=20
8a
8b
8cc#
8b
8cc#
8dd#
=21
8ee
8ff#
8gg#
8aa
8ff#
8dd#
=22
8ee
8gg#
8bb
8aa#
8aa
8ff#
=23
8ee
8ff#
8gg#
8aa
8ff#
8dd#
=24
8ee
8gg#
8bb
8aa#
8aa
8ff#
=25
8ee
8gg#
8bb
8aa#
8aa
8ff#
=26
8ee
8dd#
8ff#
8ee
8dd
8b
=27
2a
4e
=28
4c#
8r
8aa
8aa
8aa
=29
4bb
8gg#
8ee
8ee
8ee
=30
4ccc#
8aa
8ccc#
8ccc#
8ccc#
=31
4ddd
8bb
16bb
16gg#
8ee
8ee
=32
4eee
8ccc#
8eee
8eee
8eee
=33
4eee
4ddd
4ccc#
=34
4bb
8r
8ddd
8ddd
8ddd
=35
4ddd
4ccc#
4bb
=36
4aa
8r
8aa
8aa
8aa
=37
16bb
16ccc#
16bb
16ccc#
8aa
8aa
8aa
8aa
=38
16ddd
16eee
16ddd
16eee
8ccc#
8aaa
8aaa
8aaa
=39
2.aaa[
=40
4.aaa]
8aaa
8aaa
8aaa
=41
8aaa
8aaa
8aaa
8aaa
8.aaa
32bbb
32cccc#
=42
4dddd
8r
8f#
8e
8d
=43
4.c#
8e
8d
8B
=44
4A
2r
=45
8ee
16dd#
16ee
16ccc#
16ddd
16bb
16gg#
16ee
16dd#
16ff#
16dd
=46
4cc#
2r
=47
8ee
16dd#
16ee
16ccc#
16ddd
16bb
16gg#
16ee
16dd#
16ff#
16dd
=48
16cc#
16ee
16aa
16ccc#
8eee
8eee
8eee
8eee
=49
16eee
16ddd
16ddd
16ccc#
16ccc#
16bb
16bb
16aa
16aa
16gg#
16gg#
16ff#
=50
8ff#
8ee#
8ee
8dd#
8dd
8cc#
=51
8b
4b
4b
8b[
=52
8b]
4b
4b
8b
=53
8cc
4cc
4cc
8cc
=54
16cc#
16a
16ee
16cc#
16aa
16ee
16ccc#
16aa
16eee
16ccc#
16aa
16ee
=55
2.bb
=56
4aa
8r
8aa
8ee
8cc#
=57
4ff#
8r
8ff#
8dd
8b
=58
4.a
8cc#
8b
8g#
=59
4a
8r
8aa
8ee
8cc#
=60
4ff#
8r
8ff#
8dd
8b
=61
4.a
8cc#
8b
8g#
=62
8a
8b
8cc#
8dd
8b
8g#
=63
8a
8b
8cc#
8dd
8b
8g#
=64
4a
8r
8aa
8aa
8aa
=65
2ddd
4aa
=66
4ff#
8r
8dd
8dd
8dd
=67
4ee
8cc#
8a
8a
8a
=68
4ff#
8dd
8ff#
8ff#
8ff#
=69
4gg
8ee
8cc#
8a
8gg
=70
4aa
8ff#
8aa
8aa
8aa
=71
4ccc
4bb
4aa
=72
4gg
8r
8bb
8bb
8bb
=73
4ddd
4ccc#
4bb
=74
4aa
8r
8ff#
8ff#
8ff#
=75
16gg#
16aa
16gg#
16aa
8ff#
8ff#
8ff#
8ff#
=76
16bb
16ccc#
16bb
16ccc#
8aa
8ccc#
8ccc#
8ccc#
=77
4bb#
4ccc#
16gg#
16aa
16gg#
16aa
=78
4aa
4ff#
8ee
16dd#
16ee
=79
4dd#
2r
=80
16ee
16cc#
16g#
16cc#
16g#
16e
16g#
16cc#
16ee
16cc#
16ee
16gg#
=81
16gg#
16ff#
16ee#
16ff#
16bb
16aa
16gg#
16aa
16gg#
16ff#
16ee
16dd#
=82
16ee
16cc#
16g#
16cc#
16g#
16e
16g#
16cc#
16ee
16cc#
16ee
16gg#
=83
16gg#
16ff#
16ee#
16ff#
16bb
16aa
16gg#
16aa
16gg#
16ff#
16ee
16dd#
=84
16ee
16cc#
16ee
16gg#
8ccc#
8ee
8ee
8ee
=85
8dd#
4dd#
4dd#
8dd#[
=86
8dd#]
4dd#
4dd#
8dd#
=87
8ee
4ee
4ee
8ee[
=88
8ee]
8ff#
8gg#
8ff#
8aa
8gg#
=89
4gg#
4r
4b#
=90
4cc#
8r
8cc#
8cc#
8cc#
=91
4dd#
8b#
8g#
8g#
8g#
=92
4ee
8cc#
8ee
8ee
8ee
=93
4ff#
8dd#
8b
8b
8b
=94
4gg#
8ee
8gg#
8gg#
8gg#
=95
4aa#
8ff##
8dd#
8dd#
8dd#
=96
4bb
8gg#
8bb
8bb
8bb
=97
4bb
8aa
16ff#
16dd#
8b
8b
=98
4b
8r
8bb
8bb
8bb
=99
4ccc
8aa
16ff#
16dd#
8b
8b
=100
4b
2r
=101
2.r
=102
4.r
8bb
8bb
8bb
=103
2eee
4bb
=104
4gg#
8r
8bb
8bb
8bb
=105
2ddd
4bb
=106
4aa
8r
8ccc#
8ccc#
8ccc#
=107
2fff#
4ccc#
=108
4aa
8r
8aa
8aa
8aa
=109
8ddd
8aa
8ff#
8dd
8a
8f#
=110
4d
2r
=111
4.r
8B#
8B#
8B#
=112
4.c#
8B#
8B#
8B#
=113
4.c#
8d#
8d#
8d#
=114
4c#
8r
8d#
8d#
8d#
=115
4c#
8r
8c#
8c#
8c#
=116
2f#
4c#
=117
4A
8r
8aa
8aa
8aa
=118
4aa
8gg#
8ee#
8ee#
8ee#
=119
4gg#
8ff#
8cc#
8cc#
8cc#
=120
4ee
8dd
8cc#
8b
8a
=121
4g#
8r
8b
8b
8b
=122
4dd
8cc#
8b
8a
8g#
=123
4f#
2r
=124
16f#
16g#
16a#
16b
16cc#
16dd
16ee
16ff#
16gg#
16aa
16bb
16ccc#
=125
16ddd
16ccc#
16bb
16aa
16gg#
16ff#
16ee
16dd
16cc#
16b
16a
16g#
=126
16f#
16e
16g#
16e
16a
16e
16b
16e
16cc#
16e
16dd
16e
=127
16cc#
16a
16cc#
16ee
8aa
8aa
8aa
8aa
=128
4gg#
8aa
8ee
8ee
8ee
=129
4dd
8cc#
8b
8b
8b
=130
4cc
8b
8a#
8b
8cc#
=131
4dd
8cc#
8b
8cc#
8dd#
=132
8ee
8dd#
8ff#
8ee
8gg
8ff#
=133
8aa
8gg
8bb
8aa#
8ccc#
8bb
=134
4ddd
8ccc#
8bb
8aa
8gg#
=135
4ccc#
8r
8ff#
8ff#
8ff#
=136
4aa
8gg#
8gg#
8gg#
8gg#
=137
4bb
8aa#
8aa#
8aa#
8aa#
=138
4ccc#
8bb
8bb
8bb
8bb
=139
4eee
4ddd
4ccc#
=140
4ccc#
8bb
8ddd
8ddd
8ddd
=141
4ddd
8ccc#
8bb
8bb
8bb
=142
4bb
8r
8d
8d
8d
=143
4d
8r
8bb
8bb
8bb
=144
4bb
8r
8B
8B
8B
=145
4B
8r
8B#
8B#
8B#
=146
4B#
8r
8c#
8c#
8c#
=147
2f#
4c#
=148
4A#
8r
8ff#
8ff#
8ff#
=149
4gg#
8ee#
8cc#
8cc#
8cc#
=150
4aa#
8ff#
8aa#
8aa#
8aa#
=151
4bb
8gg#
16gg#
16ee#
8cc#
8cc#
=152
4ccc#
8aa#
8ccc#
8ccc#
8ccc#
=153
4ccc#
4bb
4aa#
=154
4gg#
8r
8bb
8bb
8bb
=155
4bb
4aa#
4gg#
=156
4ff#
8r
8ff#
8ff#
8ff#
=157
16gg#
16aa#
16gg#
16aa#
8ff#
8ff#
8ff#
8ff#
=158
16bb
16ccc#
16bb
16ccc#
8aa#
8ddd#
8ddd#
8ddd#
=159
4.fff#
8ccc##
8ccc##
8ccc##
=160
4ccc##
8ddd#
8ccc#
8eee
8ddd#
=161
8ccc#
8bb
8aa#
8gg#
8.ff#
32gg#
32aa#
=162
4bb
8r
8ddd#
8ccc#
8bb
=163
4.aa#
8ccc#
8bb
8gg#
=164
4ff#
2r
=165
8cc#
16b#
16cc#
16aa#
16bb
16gg#
16ee#
16cc#
16b#
16dd#
16b
=166
4a#
2r
=167
8cc#
16b#
16cc#
16aa#
16bb
16gg#
16ee#
16cc#
16b#
16dd#
16b
=168
16a#
16cc#
16ff#
16aa#
8ccc#
8ccc#
8ccc#
8ccc#
=169
16ccc#
16bb
16bb
16aa#
16aa#
16gg#
16gg#
16ff#
16ff#
16ee#
16ee#
16dd#
=170
8dd#
8cc##
8cc#
8b#
8b
8a#
=171
8g#
4g#
4g#
8g#[
=172
8g#]
4g#
4g#
8g#
=173
8a
4a
4a
8a
=174
16a#
16f#
16a#
16cc#
16ff#
16cc#
16ff#
16aa#
16ccc#
16aa#
16ff#
16cc#
=175
2.gg#
=176
4ff#
8r
8ff#
8cc#
8a#
=177
4dd#
8r
8ddd#
8bb
8gg#
=178
4.ff#
8aa#
8gg#
8ee#
=179
4ff#
8r
8ff#
8cc#
8a#
=180
4dd#
8r
8ddd#
8bb
8gg#
=181
4.ff#
8aa#
8gg#
8ee#
=182
8ff#
8gg#
8aa#
8bb
8gg#
8ee#
=183
8ff#
8gg#
8aa#
8bb
8gg#
8ee#
=184
4ff#
2r
==
*-
